!!!!SEGMENT: pl-sa--95-a-ii-35--004_anonim--veni-sancte-spiritus.krn
!!!cenid: 17xx:1455
!!!COM: Anonim
!!!COM-rismID: pe30004985
!!!CDT:
!!!CNT:
!!!OTL: Veni Sancte spiritus
!!!PDT:
!!!AGN:
!!!SMS-siglum: PL-SA
!!!SMS-shelfmark: 95/A II 35
!!!SMS-shelfwork: 004 W
!!!SMS-variant:
!!!SMS-altvar:
!!!NIFC-rismSourceID: 1001041187
!!!NIFC-islandoraID:
!!!URL-pdf-islandora:
!!!URL-scan: https://bc.bdsandomierz.pl/dlibra/publication/1376/edition/1344/content @EN{Scan on Cyfrowa Biblioteka Diecezjalna w Sandomierzu} @PL{Skany w portalu Cyfrowa Biblioteka Diecezjalna w Sandomierzu}
!!!ONB-nifc: 4tus
!!!AIN: 1 organ 1 soprn 2 violn
!!!key: C
**kern	**fba	**kern	**dynam	**kern	**dynam	**kern	**text
*part4	*part4	*part3	*part3	*part2	*part2	*part1	*part1
*staff4	*	*staff3	*	*staff2	*	*staff1	*staff1
*I"Organo	*	*I"Violino 2do	*	*I"Violino 1mo	*	*I"Canto	*
*I'org	*	*I'vl II	*	*I'vl I	*	*I'S	*
*ICklav	*	*ICstr	*	*ICstr	*	*ICvox	*
*Iorgan	*	*Ivioln	*	*Ivioln	*	*Isoprn	*
*clefF4	*	*clefG2	*	*clefG2	*	*clefC3	*
*k[]	*	*k[]	*	*k[]	*	*k[]	*
*C:	*	*C:	*	*C:	*	*C:	*
*M4/4	*	*M4/4	*	*M4/4	*	*M4/4	*
*met(C)	*	*met(C)	*	*met(C)	*	*met(C)	*
=1	=1	=1	=1	=1	=1	=1	=1
!	!	!	!	!	!	!LO:TX:t=P:problem= Canto zapisane w kluczu altowym	!
!LO:TX:b:t=Veni Sancte	!	!	!	!LO:TX:b:t=Veni Sancte	!	!	!
!LO:TX:a:B:t=Adagio	!	!LO:TX:b:t=Veni Sancte	!	!LO:TX:a:B:t=Adagio	!	!	!
4C/	.	8r	.	8r	.	1r	.
.	.	8c/L	.	8c/L	.	.	.
4r	.	8e/	.	8e/	.	.	.
.	.	8g/J	.	8g/J	.	.	.
4C/	.	8cc\L	.	8cc\L	.	.	.
.	.	16b\L	.	16b\L	.	.	.
.	.	16a\JJ	.	16a\JJ	.	.	.
4r	.	16g/LL	.	16g/LL	.	.	.
.	.	16f/	.	16f/	.	.	.
.	.	16e/	.	16e/	.	.	.
.	.	16d/JJ	.	16d/JJ	.	.	.
=2	=2	=2	=2	=2	=2	=2	=2
8r	.	8c/L	.	8c/L	.	1r	.
8C/L	.	8e/	.	8g/	.	.	.
8C/	.	8e/	.	8g/	.	.	.
8C/J	.	8e/J	.	8g/J	.	.	.
4GG/	7 5	8d/L	.	8f/L	.	.	.
.	.	16G/L	.	16G/L	.	.	.
.	.	16A/JJ	.	16A/JJ	.	.	.
4r	.	16B/LL	.	16B/LL	.	.	.
.	.	16c/	.	16c/	.	.	.
.	.	16d/	.	16d/	.	.	.
.	.	16e/JJ	.	16e/JJ	.	.	.
=3	=3	=3	=3	=3	=3	=3	=3
8r	.	8d/L	.	8f/L	.	1r	.
8GG/L	.	8d/	.	8f/	.	.	.
8GG/	.	8d/	.	8f/	.	.	.
8GG/J	.	8d/J	.	8f/J	.	.	.
4C/	.	8c/L	.	8e/L	.	.	.
.	.	8ee\	.	8gg\	.	.	.
4r	.	8ee\	.	8gg\	.	.	.
.	.	8ee\J	.	8gg\J	.	.	.
=4	=4	=4	=4	=4	=4	=4	=4
4G\	7_ 5_	8dd\L	.	8ff\L	.	1r	.
.	.	16g\L	.	16g\L	.	.	.
.	.	16a\JJ	.	16a\JJ	.	.	.
4r	.	16b\LL	.	16b\LL	.	.	.
.	.	16cc\	.	16cc\	.	.	.
.	.	16dd\	.	16dd\	.	.	.
*	*	*	*	*custos:ff	*	*	*
.	.	16ee\JJ	.	16eeJJ	.	.	.
!	!	!	!	!LO:LB:g=original	!	!	!
8r	.	8ff\L	.	8ff\L	.	.	.
8G\L	.	8dd\	.	8ff\	.	.	.
8G\	.	8dd\	.	8ff\	.	.	.
8G\J	.	8dd\J	.	8ff\J	.	.	.
!	!	!LO:LB:g=original	!	!	!	!	!
=5	=5	=5	=5	=5	=5	=5	=5
*	*	*^	*	*^	*	*	*
4C/	.	4ee/	16ee\LL	.	4ee/	16ee\LL	.	1r	.
.	.	.	(>16cc\	.	.	(>16cc\	.	.	.
.	.	.	16b\	.	.	16b\	.	.	.
.	.	.	16cc\JJ)	.	.	16cc\JJ)	.	.	.
4r	.	4g/	16g\LL	.	4g/	16g\LL	.	.	.
.	.	.	(>16cc\	.	.	(>16cc\	.	.	.
.	.	.	16b\	.	.	16b\	.	.	.
.	.	.	16cc\JJ)	.	.	16cc\JJ)	.	.	.
8r	.	2ryy	8g/L	.	2ryy	8g/L	.	.	.
8C/L	.	.	8g/J	.	.	8b-X/J	.	.	.
8C/	-7	.	8g/L	.	.	8b-/L	.	.	.
8C/J	.	.	16f/L	.	.	16a/L	.	.	.
.	.	.	16e/JJ	.	.	16g/JJ	.	.	.
=6	=6	=6	=6	=6	=6	=6	=6	=6	=6
4F\	.	2ryy	8a/L	.	2ryy	8a/L	.	1r	.
.	.	.	16f/L	.	.	16f/L	.	.	.
.	.	.	16e/JJ	.	.	16e/JJ	.	.	.
4r	.	.	4f/	.	.	4f/	.	.	.
4D/	#	4a/	16a\LL	.	4a/	16a\LL	.	.	.
.	.	.	(>16dd\	.	.	(>16dd\	.	.	.
.	.	.	16cc#X\	.	.	16cc#X\	.	.	.
.	.	.	16dd\JJ)	.	.	16dd\JJ)	.	.	.
4ryy	.	4a/	16a\LL	.	4a/	16a\LL	.	.	.
.	.	.	(>16dd\	.	.	(>16dd\	.	.	.
.	.	.	16cc#X\	.	.	16cc#X\	.	.	.
.	.	.	16dd\JJ)	.	.	16dd\JJ)	.	.	.
*	*	*v	*v	*	*	*	*	*	*
*	*	*	*	*v	*v	*	*	*
!LO:LB:g=original	!	!	!	!	!	!	!
=7	=7	=7	=7	=7	=7	=7	=7
8r	.	8a\L	.	8a\L	.	1r	.
8D/L	7_	8a\J	.	8cc\J	.	.	.
8D/	.	8a\L	.	8cc\L	.	.	.
8D/J	.	16g\L	.	16b\L	.	.	.
.	.	16f\JJ	.	16a\JJ	.	.	.
4G\	.	16b\LL	.	16b/LL	.	.	.
.	.	16g\	.	16g/	.	.	.
.	.	16b\	.	16b/	.	.	.
.	.	16dd\JJ	.	16dd/JJ	.	.	.
4r	.	8gg\L	.	[4gg\	.	.	.
.	.	8g/J	.	.	.	.	.
=8	=8	=8	=8	=8	=8	=8	=8
!	!	!	!	!LO:TX:t=P:problem=mixed beam	!	!	!
1r	.	4gg\	.	16gg\LL]	.	1r	.
.	.	.	.	16g/	.	.	.
.	.	.	.	16b/	.	.	.
.	.	.	.	16dd/JJ	.	.	.
.	.	8r	.	[4ff\	.	.	.
.	.	8g/	.	.	.	.	.
!	!	!	!	!LO:LB:g=original	!	!	!
!	!	!	!	!LO:TX:t=P:problem=mixed beam	!	!	!
.	.	4ff\	.	16ff\LL]	.	.	.
.	.	.	.	16g/	.	.	.
.	.	.	.	16b/	.	.	.
.	.	.	.	16dd/JJ	.	.	.
.	.	8r	.	[4ee\	.	.	.
.	.	8g/	.	.	.	.	.
!	!	!LO:LB:g=original	!	!	!	!	!
=9	=9	=9	=9	=9	=9	=9	=9
2r	.	16ee\LL	.	16ee\LL]	.	1r	.
.	.	16cc\	.	16cc\	.	.	.
.	.	16b\	.	16b\	.	.	.
.	.	16a\JJ	.	16a\JJ	.	.	.
.	.	16g/LL	.	16g/LL	.	.	.
.	.	16f/	.	16f/	.	.	.
.	.	16e/	.	16e/	.	.	.
.	.	16d/JJ	.	16d/JJ	.	.	.
8r	.	8c/L	.	8c/L	.	.	.
8C/L	.	8e/	.	8g/	.	.	.
8C/	.	8e/	.	8g/	.	.	.
8C/J	.	8e/J	.	8g/J	.	.	.
=10	=10	=10	=10	=10	=10	=10	=10
4GG/	7_ 5_	8d/L	.	8f/L	.	1r	.
.	.	16G/L	.	16G/L	.	.	.
.	.	16A/JJ	.	16A/JJ	.	.	.
4r	.	16B/LL	.	16B/LL	.	.	.
.	.	16c/	.	16c/	.	.	.
.	.	16d/	.	16d/	.	.	.
.	.	16e/JJ	.	16e/JJ	.	.	.
8r	.	8d/L	.	8f/L	.	.	.
8GG/L	.	8d/	.	8f/	.	.	.
8GG/	.	8d/	.	8f/	.	.	.
8GG/J	.	8d/J	.	8f/J	.	.	.
=11	=11	=11	=11	=11	=11	=11	=11
4C/	.	16e/LL	.	16e/LL	.	1r	.
.	.	16c/	.	16c/	.	.	.
.	.	16e/	.	16e/	.	.	.
.	.	16g/JJ	.	16g/JJ	.	.	.
8r	.	8cc\L	.	8cc\L	.	.	.
8F\	.	8f\J	.	8f/J	.	.	.
8G\L	6 4	4e/	.	4e/	.	.	.
8F\J	.	.	.	.	.	.	.
8G\L	4	8d/L	.	8.d/L	.	.	.
8GG/J	3	8c/J	.	.	.	.	.
.	.	.	.	16c/Jk	.	.	.
=12	=12	=12	=12	=12	=12	=12	=12
8C/L	.	8c/	.	8c/	.	8g\L	Ve-
8D/	.	8r	.	8r	.	8f\J	.
8D/	6	4r	.	4r	.	8f\L	-ni
8C/J	.	.	.	.	.	8e\J	.
8C/L	.	2r	.	2r	.	8e\L	ve-
16BB/L	.	.	.	.	.	8d\J	.
16AA/JJ	.	.	.	.	.	.	.
8BB/L	.	.	.	.	.	4d\	-ni
8GG/J	.	.	.	.	.	.	.
=13	=13	=13	=13	=13	=13	=13	=13
!	!	!	!	!LO:TX:a:t=3	!	!	!
8C/L	.	1r	.	1r	.	8g\	Ve-
8D/	6	.	.	.	.	8f\	-ni
8D/	.	.	.	.	.	8f\	San-
8C/J	.	.	.	.	.	8e\	-cte
!LO:LB:g=original	!	!	!	!	!	!	!
8GG/L	.	.	.	.	.	8.d\	Spi-
8AA/J	.	.	.	.	.	.	.
.	.	.	.	.	.	16c/	-ri-
4GG/	.	.	.	.	.	4d\	-tus
=14	=14	=14	=14	=14	=14	=14	=14
4F\	3	1r	.	1r	.	8a\	et
.	.	.	.	.	.	8a\	e-
8r	.	.	.	.	.	8a\	-mit-
8F\L	.	.	.	.	.	8a\	-te
8E\	.	.	.	.	.	8g\	cae-
!	!	!	!	!	!	!LO:LB:g=original	!
8D\J	.	.	.	.	.	8b\	-li-
4C/	.	.	.	.	.	8cc\	-tus
.	.	.	.	.	.	8r	.
=15	=15	=15	=15	=15	=15	=15	=15
8F\L	.	1r	.	1r	.	8a\	lu-
8E\	.	.	.	.	.	8g\	-cis
8D\	.	.	.	.	.	8f\	tu-
8C\J	.	.	.	.	.	8e\	-ae
8GG/L	.	.	.	.	.	8.d\	ra-
8AA/	.	.	.	.	.	.	.
.	.	.	.	.	.	16c/	-di-
8BB/	.	.	.	.	.	4d\	-um
8GG/J	.	.	.	.	.	.	.
!	!	!	!	!LO:LB:g=original	!	!	!
=16	=16	=16	=16	=16	=16	=16	=16
!	!	!	!LO:DY:a:t=forte	!	!LO:DY:a:t=for.	!	!
4GG/	.	16g\LL	f	16g/LL	f	1r	.
.	.	16a\	.	16a/	.	.	.
.	.	16b\	.	16b/	.	.	.
.	.	16cc\JJ	.	16cc/JJ	.	.	.
4r	.	16dd\LL	.	16dd\LL	.	.	.
.	.	16ee\	.	16ee\	.	.	.
.	.	16ff#X\	.	16ff#X\	.	.	.
.	.	16gg\JJ	.	16gg\JJ	.	.	.
!	!	!LO:LB:g=original	!	!	!	!	!
8G\L	.	4g/	.	4g/	.	.	.
8A\	.	.	.	.	.	.	.
8B\J	6	8r	.	8r	.	.	.
8r	.	[8ee\	.	[8gg\	.	.	.
=17	=17	=17	=17	=17	=17	=17	=17
2r	.	8ee\L]	.	8gg\L]	.	1r	.
.	.	8dd\	.	8ff\	.	.	.
.	.	8dd\	.	8ff\	.	.	.
.	.	8dd\J	.	8ff\J	.	.	.
4r	.	8dd\L	.	8ff\L	.	.	.
.	.	16cc\L	.	16ee\L	.	.	.
.	.	16b\JJ	.	16dd\JJ	.	.	.
8r	.	8cc\L	.	8ee\L	.	.	.
8C/	.	8g\J	.	8g/J	.	.	.
=18	=18	=18	=18	=18	=18	=18	=18
8C/L	.	8e/L	.	8g/L	.	1r	.
8D/	.	8d/	.	8f/	.	.	.
8D/	.	8d/	.	8f/	.	.	.
8C/J	.	8d/J	.	8f/J	.	.	.
8BB/L	.	8d/L	.	8f/L	.	.	.
8GG/	.	16c/L	.	16e/L	.	.	.
.	.	16B/JJ	.	16d/JJ	.	.	.
8C/	.	8c/L	.	8e/L	.	.	.
8F/J	.	8a/J	.	8cc\J	.	.	.
=19	=19	=19	=19	=19	=19	=19	=19
8G\L	6 4	4e/	.	4e/	.	2r	.
8F\	.	.	.	.	.	.	.
8G\	4	8d/L	.	8d/L	.	.	.
8GG/J	3	8c/J	.	8c/J	.	.	.
!	!	!	!LO:DY:a:t=piano	!	!LO:DY:t=piano	!	!
4C/	.	8c/L	p	8c/L	p	8g\L	Ve-
.	.	8d/	.	8d/	.	8f\J	.
4r	.	8d/	.	8d/	.	8f\L	-ni
.	.	8c/J	.	8c/J	.	8e\J	.
!LO:LB:g=original	!	!	!	!	!	!	!
=20	=20	=20	=20	=20	=20	=20	=20
1r	.	8c/L	.	8c/L	.	8e\L	ve-
.	.	8B/J	.	8B/	.	8d\J	.
.	.	4B/	.	8B/	.	4d\	-ni
.	.	.	.	8B/J	.	.	.
.	.	8e/L	.	8e/L	.	8g\	ve-
.	.	8d/	.	8d/	.	8f\	-ni
.	.	8d/	.	8d/	.	8f\	San-
.	.	8c/J	.	8c/J	.	8e\	-cte
!	!	!	!	!LO:LB:g=original	!	!	!
=21	=21	=21	=21	=21	=21	=21	=21
1r	.	8B/L	.	8e/L	.	8.d\	Spi-
.	.	8A/J	.	8d/J	.	.	.
.	.	.	.	.	.	16c/	-ri-
!	!	!	!	!	!	!LO:LB:g=original	!
.	.	4B/	.	4e/	.	4d\	-tus
.	.	8f/L	.	8f/L	.	8a\	ve-
.	.	8f/	.	8f/	.	8a\	-ni
.	.	8f/	.	8f/	.	8a\	da-
.	.	8f/J	.	8f/J	.	8a\	-tor
!	!	!LO:LB:g=original	!	!	!	!	!
=22	=22	=22	=22	=22	=22	=22	=22
!LO:TX:t=P:problem=brak taktów w źródle	!	!	!	!LO:TX:t=P:problem=brak taktów w źródle	!	!LO:TX:t=P:problem=brak taktów w źródle	!
1ryy	.	8B/L	.	1ryy	.	1ryy	.
.	.	8A/J	.	.	.	.	.
.	.	4B/	.	.	.	.	.
.	.	8f/L	.	.	.	.	.
.	.	8f/	.	.	.	.	.
.	.	8f/	.	.	.	.	.
.	.	8f/J	.	.	.	.	.
=23	=23	=23	=23	=23	=23	=23	=23
1ryy	.	8e/L	.	1ryy	.	1ryy	.
.	.	8d/J	.	.	.	.	.
.	.	4e/	.	.	.	.	.
.	.	8f/L	.	.	.	.	.
.	.	8f/	.	.	.	.	.
.	.	8f/	.	.	.	.	.
.	.	8f/J	.	.	.	.	.
=24	=24	=24	=24	=24	=24	=24	=24
1r	.	8e/L	.	8e/L	.	8g\	mu-
.	.	8d/J	.	8d/J	.	8b\	-ne-
.	.	4e/	.	4e/	.	4cc\	-rum
.	.	8c/L	.	8c/L	.	8a\	Ve-
.	.	8d/	.	8d/	.	8a\	-ni
.	.	8e/	.	8e/	.	8a\	lu-
.	.	8d/J	.	8d/J	.	8a\	-men
=25	=25	=25	=25	=25	=25	=25	=25
1r	.	8c/L	.	8c/L	.	8g\	Cor-
.	.	8e/J	.	8e/J	.	8b\	-di-
.	.	4f/	.	4f/	.	4cc\	-um
.	.	8c/L	.	8c/L	.	8b-X\	con-
.	.	8d/	.	8d/	.	8b-\	-so-
.	.	8e/	.	8e/	.	8b-\	-la-
.	.	8d/J	.	8d/J	.	8b-\	-tor
=26	=26	=26	=26	=26	=26	=26	=26
1r	.	8c/L	.	8c/L	.	8b-X\	op-
.	.	8e/J	.	8e/J	.	16a\LL	-ti-
.	.	.	.	.	.	16g\JJ	.
.	.	4f/	.	4f/	.	4a\	-me
!	!	!	!	!	!	!LO:LB:g=original	!
.	.	8e/L	.	8e/L	.	8b-X\	dul-
.	.	8d/	.	8d/	.	8b-\	-cis
.	.	8d/	.	8d/	.	8b-\	hos-
.	.	8c/J	.	8c/J	.	8b-\	-pes
=27	=27	=27	=27	=27	=27	=27	=27
1r	.	8B/L	.	8B/L	.	8b\	a-
.	.	8A/J	.	8A/J	.	16a\LL	-ni-
.	.	.	.	.	.	16g\JJ	.
.	.	4G/	.	4G/	.	4a\	-mae
.	.	2r	.	2r	.	8g\	dul-
.	.	.	.	.	.	8f\	-ce
.	.	.	.	.	.	8f\	re-
.	.	.	.	.	.	8e\	-fri-
!	!	!LO:LB:g=original	!	!	!	!	!
=28	=28	=28	=28	=28	=28	=28	=28
!	!	!LO:TX:a:t=1	!	!LO:TX:a:t=1	!	!	!
2r	.	1r	.	1r	.	8.d\	-ge-
.	.	.	.	.	.	16d\	-ri-
.	.	.	.	.	.	4d\	-um
8C/L	.	.	.	.	.	8cc\	In
8D/	.	.	.	.	.	8g\	la-
8E/	.	.	.	.	.	8g\	-bo-
8C/J	.	.	.	.	.	16f\LL	-re
.	.	.	.	.	.	16e\JJ	.
=29	=29	=29	=29	=29	=29	=29	=29
!	!	!LO:TX:t=P:problem=brak taktów w źródle	!	!LO:TX:t=P:problem=brak taktów w źródle	!	!	!
8F\L	.	1ryy	.	1ryy	.	8a\	re-
16E\L	.	.	.	.	.	16g\LL	-qui-
16D\JJ	.	.	.	.	.	16f\JJ	.
8E\L	.	.	.	.	.	4g\	-es
8D\J	.	.	.	.	.	.	.
!	!	!	!	!	!	!LO:LB:g=original	!
8C/L	.	.	.	.	.	8cc\	in
8D/	.	.	.	.	.	8g\	ae-
8E/	.	.	.	.	.	8g\	-stu
8C/J	.	.	.	.	.	16f\LL	tem-
.	.	.	.	.	.	16e\JJ	.
=30	=30	=30	=30	=30	=30	=30	=30
8F\L	.	2r	.	2r	.	8a\	-pe-
16E\L	.	.	.	.	.	16g\LL	-ri-
16D\JJ	.	.	.	.	.	16f\JJ	.
4C/	.	.	.	.	.	4g\	-es
2r	.	16dd\LL	.	16dd\LL	.	4r	.
.	.	16dd\	.	16dd\	.	.	.
.	.	16b\	.	16b\	.	.	.
.	.	16b\JJ	.	16b\JJ	.	.	.
!	!	!	!	!LO:LB:g=original	!	!	!
.	.	16dd\LL	.	16dd\LL	.	8r	.
.	.	16dd\	.	16dd\	.	.	.
.	.	16b\	.	16b\	.	8f\	in
.	.	16b\JJ	.	16b\JJ	.	.	.
=31	=31	=31	=31	=31	=31	=31	=31
1r	.	16dd\LL	.	16dd\LL	.	4f\	fle-
.	.	16dd\	.	16dd\	.	.	.
.	.	16b\	.	16b\	.	.	.
.	.	16b\JJ	.	16b\JJ	.	.	.
.	.	16dd\LL	.	16dd\LL	.	8f\	-tu
.	.	16dd\	.	16dd\	.	.	.
.	.	16b\	.	16b\	.	8f\	so-
.	.	16b\JJ	.	16b\JJ	.	.	.
.	.	16cc\LL	.	16cc\LL	.	8.e\	-la-
.	.	16cc\	.	16cc\	.	.	.
.	.	16cc\	.	16cc\	.	.	.
.	.	16cc\JJ	.	16cc\JJ	.	16e\	-ti-
.	.	8cc\L	.	8cc\L	.	8e\	-um
.	.	8e/J	.	8e/J	.	8cc\	in
=32	=32	=32	=32	=32	=32	=32	=32
1r	.	8f/L	.	8f/L	.	8b\	fle-
.	.	16e/L	.	16e/L	.	16cc\	-tu
.	.	16d/JJ	.	16d/JJ	.	16c/	so-
.	.	8g/L	.	8.g/L	.	8.d\	-la-
.	.	8G/J	.	.	.	.	.
.	.	.	.	16g/Jk	.	16d\	-ti-
.	.	8c/L	.	8c/L	.	4c/	-um
.	.	16g/L	.	16g/L	.	.	.
.	.	16f/JJ	.	16f/JJ	.	.	.
.	.	16e/LL	.	16e/LL	.	4r	.
.	.	16d/	.	16d/	.	.	.
.	.	16c/	.	16c/	.	.	.
.	.	16B/JJ	.	16B/JJ	.	.	.
!	!	!	!	!	!	!LO:LB:g=original	!
=33	=33	=33	=33	=33	=33	=33	=33
8C/L	.	8c/L	.	8c/L	.	8cc\	in
8D/	.	8e/J	.	8e/J	.	8g\	la-
8E/	.	8e/L	.	8e/L	.	8g\	-bo-
8C/J	.	16d/L	.	16d/L	.	16f\LL	-re
.	.	16c/JJ	.	16c/JJ	.	16e\JJ	re-
8F\L	.	8f/L	.	8f/L	.	8a\	-qui-
16E\L	.	16e/L	.	16e/L	.	16g\LL	.
16D\JJ	.	16d/JJ	.	16d/JJ	.	16f\JJ	-es
8E\L	.	8e/L	.	8e/L	.	4g\	in
8D\J	.	8d/J	.	8d/J	.	.	.
!	!	!LO:LB:g=original	!	!	!	!	!
=34	=34	=34	=34	=34	=34	=34	=34
!	!	!LO:TX:a:t=1	!	!LO:TX:a:t=1	!	!	!
8C/L	.	1r	.	1r	.	8cc\	ae-
8D/	.	.	.	.	.	8g\	-stu
8E/	.	.	.	.	.	8g\	tem-
8C/J	.	.	.	.	.	16f\LL	.
.	.	.	.	.	.	16e\JJ	.
8F\L	.	.	.	.	.	8a\	-pe-
16E\L	.	.	.	.	.	16g\LL	-ri-
16D\JJ	.	.	.	.	.	16f\JJ	.
4C/	.	.	.	.	.	4g\	-es
!LO:LB:g=original	!	!	!	!LO:LB:g=original	!	!	!
=35	=35	=35	=35	=35	=35	=35	=35
1r	.	16dd\LL	.	16dd\LL	.	4r	.
.	.	16dd\	.	16dd\	.	.	.
.	.	16b\	.	16b\	.	.	.
.	.	16b\JJ	.	16b\JJ	.	.	.
.	.	16dd\LL	.	16dd\LL	.	8r	.
.	.	16dd\	.	16dd\	.	.	.
.	.	16b\	.	16b\	.	8f\	in
.	.	16b\JJ	.	16b\JJ	.	.	.
.	.	16dd\LL	.	16dd\LL	.	4f\	fle-
.	.	16dd\	.	16dd\	.	.	.
.	.	16b\	.	16b\	.	.	.
.	.	16b\JJ	.	16b\JJ	.	.	.
.	.	16dd\LL	.	16dd\LL	.	8f\	-tu
.	.	16dd\	.	16dd\	.	.	.
.	.	16b\	.	16b\	.	8f\	so-
.	.	16b\JJ	.	16b\JJ	.	.	.
=36	=36	=36	=36	=36	=36	=36	=36
1r	.	16cc\LL	.	16cc\LL	.	8.e\	-la-
.	.	16cc\	.	16cc\	.	.	.
.	.	16cc\	.	16cc\	.	.	.
.	.	16cc\JJ	.	16cc\JJ	.	16e\	-ti-
.	.	8cc\L	.	8cc\L	.	8e\	-um
!	!	!	!	!	!	!LO:LB:g=original	!
.	.	8e/J	.	8e/J	.	8cc\	in
.	.	8g/L	.	8g/L	.	8b\	fle-
.	.	16e/L	.	16e/L	.	16cc\	-tu
.	.	16f/JJ	.	16f/JJ	.	16c\	so-
.	.	8g/L	.	8g/L	.	8.d\	-la-
.	.	8G/J	.	8G/J	.	.	.
.	.	.	.	.	.	16d\	-ti-
=37	=37	=37	=37	=37	=37	=37	=37
4C/	.	8c/L	.	8c/L	.	4c/	-um
.	.	8e/	.	8e/	.	.	.
4r	.	8f/	.	8f/	.	4r	.
.	.	8g/J	.	8g/J	.	.	.
!	!	!	!LO:DY:a:t=forte	!	!LO:DY:t=forte	!	!
4C/	.	8cc\L	f	8cc\L	f	2r	.
.	.	16b\L	.	16b\L	.	.	.
.	.	16a\JJ	.	16a\JJ	.	.	.
4r	.	16g/LL	.	16g/LL	.	.	.
.	.	16f/	.	16f/	.	.	.
.	.	16e/	.	16e/	.	.	.
.	.	16d/JJ	.	16d/JJ	.	.	.
=38	=38	=38	=38	=38	=38	=38	=38
8r	.	8c/L	.	8c/L	.	1r	.
8C/L	.	8g/	.	8e/	.	.	.
8C/	.	8g/	.	8e/	.	.	.
8C/J	.	8g/J	.	8e/J	.	.	.
4GG/	7 5	8f/L	.	8d/L	.	.	.
.	.	16G/L	.	16G/L	.	.	.
.	.	16A/JJ	.	16A/JJ	.	.	.
4r	.	16B/LL	.	16B/LL	.	.	.
.	.	16c/	.	16c/	.	.	.
.	.	16d/	.	16d/	.	.	.
.	.	16e/JJ	.	16e/JJ	.	.	.
!	!	!LO:LB:g=original	!	!LO:LB:g=original	!	!	!
=39	=39	=39	=39	=39	=39	=39	=39
8r	.	8f/L	.	8d/L	.	1r	.
8GG/L	7	8f/	.	8d/	.	.	.
8GG/	.	8f/	.	8d/	.	.	.
8GG/J	.	8f/J	.	8d/J	.	.	.
4C/	.	8e/L	.	8c/L	.	.	.
.	.	8gg\	.	8ee\	.	.	.
4r	.	8gg\	.	8ee\	.	.	.
.	.	8gg\J	.	8ee\J	.	.	.
=40	=40	=40	=40	=40	=40	=40	=40
4G\	7_ 5_	8ff\L	.	8dd\L	.	1r	.
.	.	16g/L	.	16g\L	.	.	.
.	.	16a/JJ	.	16a\JJ	.	.	.
4r	.	16b\LL	.	16b\LL	.	.	.
.	.	16cc\	.	16cc\	.	.	.
.	.	16dd\	.	16dd\	.	.	.
.	.	16ee\JJ	.	16ee\JJ	.	.	.
8r	.	8ff\L	.	8dd\L	.	.	.
8G\L	.	8ff\	.	8dd\	.	.	.
8G\	.	8ff\	.	8dd\	.	.	.
8G\J	.	8ff\J	.	8dd\J	.	.	.
=41	=41	=41	=41	=41	=41	=41	=41
*	*	*^	*	*^	*	*	*
4c\	.	4ee/	16ee\LL	.	4ee/	16ee\LL	.	1r	.
.	.	.	(>16cc\	.	.	(>16cc\	.	.	.
.	.	.	16b\	.	.	16b\	.	.	.
.	.	.	16cc\JJ)	.	.	16cc\JJ)	.	.	.
4r	.	4g/	16g\LL	.	4g/	16g\LL	.	.	.
.	.	.	(>16cc\	.	.	(>16cc\	.	.	.
.	.	.	16b\	.	.	16b\	.	.	.
.	.	.	16cc\JJ)	.	.	16cc\JJ)	.	.	.
8r	.	2ryy	8g/L	.	2ryy	8g/L	.	.	.
8C/L	-7	.	8b-X/J	.	.	8b-X/J	.	.	.
8C/	.	.	8b-/L	.	.	8b-/L	.	.	.
8C/J	.	.	16a/L	.	.	16a/L	.	.	.
.	.	.	16g/JJ	.	.	16g/JJ	.	.	.
=42	=42	=42	=42	=42	=42	=42	=42	=42	=42
4F\	.	2ryy	8a/L	.	2ryy	8a/L	.	1r	.
.	.	.	16f/L	.	.	16f/L	.	.	.
.	.	.	16e/JJ	.	.	16e/JJ	.	.	.
4r	.	.	4f/	.	.	4f/	.	.	.
4D/	#	4a/	16a\LL	.	4a/	16a\LL	.	.	.
.	.	.	(>16dd\	.	.	(>16dd\	.	.	.
.	.	.	16cc#X\	.	.	16cc#X\	.	.	.
.	.	.	16dd\JJ)	.	.	16dd\JJ)	.	.	.
4r	.	4a/	16a\LL	.	4a/	16a\LL	.	.	.
.	.	.	(>16dd\	.	.	(>16dd\	.	.	.
.	.	.	16cc#X\	.	.	16cc#X\	.	.	.
.	.	.	16dd\JJ)	.	.	16dd\JJ)	.	.	.
*	*	*v	*v	*	*	*	*	*	*
*	*	*	*	*v	*v	*	*	*
!	!	!LO:LB:g=original	!	!LO:LB:g=original	!	!	!
=43	=43	=43	=43	=43	=43	=43	=43
8r	.	8a\L	.	8a/L	.	1r	.
8D\L	.	8cc\J	.	8a/J	.	.	.
8D\	7 5	8cc\L	.	8a/L	.	.	.
8D\J	.	16b\L	.	16g/L	.	.	.
.	.	16a\JJ	.	16f#X/JJ	.	.	.
4G\	.	16b/LL	.	16b\LL	.	.	.
.	.	16g/	.	16g\	.	.	.
.	.	16b/	.	16b\	.	.	.
.	.	16dd/JJ	.	16dd\JJ	.	.	.
!	!	!	!	!	!	!	!
4r	.	[4gg\	.	8gg\L	.	.	.
.	.	.	.	8g/J	.	.	.
=44	=44	=44	=44	=44	=44	=44	=44
!LO:TX:a:t=1	!	!LO:TX:t=P:problem=mixed beam	!	!	!	!	!
1r	.	16gg\LL]	.	4gg\	.	1r	.
.	.	16g/	.	.	.	.	.
.	.	16b/	.	.	.	.	.
.	.	16dd/JJ	.	.	.	.	.
.	.	[4ff\	.	8r	.	.	.
.	.	.	.	8g/	.	.	.
!	!	!LO:TX:t=P:problem=mixed beam	!	!	!	!	!
.	.	16ff\LL]	.	4ff\	.	.	.
.	.	16g/	.	.	.	.	.
.	.	16b/	.	.	.	.	.
.	.	16dd/JJ	.	.	.	.	.
.	.	[4ee\	.	8r	.	.	.
.	.	.	.	8g/	.	.	.
!LO:LB:g=original	!	!	!	!	!	!	!
=45	=45	=45	=45	=45	=45	=45	=45
2r	.	16ee\LL]	.	16ee\LL	.	1r	.
.	.	16cc\	.	16cc\	.	.	.
.	.	16b\	.	16b\	.	.	.
.	.	16a\JJ	.	16a\JJ	.	.	.
.	.	16g/LL	.	16g/LL	.	.	.
.	.	16f/	.	16f/	.	.	.
.	.	16e/	.	16e/	.	.	.
.	.	16d/JJ	.	16d/JJ	.	.	.
8r	.	8c/L	.	8c/L	.	.	.
8C/L	.	8g/	.	8e/	.	.	.
8C/	.	8g/	.	8e/	.	.	.
8C/J	.	8g/J	.	8e/J	.	.	.
=46	=46	=46	=46	=46	=46	=46	=46
4GG/	7_ 5_	8f/L	.	8d/L	.	1r	.
.	.	16G/L	.	16G/L	.	.	.
.	.	16A/JJ	.	16A/JJ	.	.	.
4r	.	16B/LL	.	16B/LL	.	.	.
.	.	16c/	.	16c/	.	.	.
.	.	16d/	.	16d/	.	.	.
.	.	16e/JJ	.	16e/JJ	.	.	.
8r	.	8f/L	.	8d/L	.	.	.
8GG/L	.	8f/	.	8d/	.	.	.
8GG/	.	8f/	.	8d/	.	.	.
8GG/J	.	8f/J	.	8d/J	.	.	.
=47	=47	=47	=47	=47	=47	=47	=47
8C\L	.	16e/LL	.	16e/LL	.	1r	.
.	.	16c/	.	16c/	.	.	.
8D\	.	16e/	.	16e/	.	.	.
.	.	16g/JJ	.	16g/JJ	.	.	.
!	!	!LO:LB:g=original	!	!	!	!	!
!	!	!	!	!LO:LB:g=original	!	!	!
8E\	.	8cc\L	.	8cc\L	.	.	.
8F\J	.	8f/J	.	8f\J	.	.	.
8G\L	4	4e/	.	4e/	.	.	.
8F\	.	.	.	.	.	.	.
8G\	3	8d/L	.	8d/L	.	.	.
8GG/J	.	8c/J	.	8c/J	.	.	.
=48	=48	=48	=48	=48	=48	=48	=48
4C/	.	8c/L	.	8c/L	.	1r	.
.	.	8gg\	.	8ee\	.	.	.
4r	.	8gg\	.	8ee\	.	.	.
.	.	8gg\J	.	8ee\J	.	.	.
4GG/	7_ 5_	8ff\L	.	8dd\L	.	.	.
.	.	16g/L	.	16g\L	.	.	.
.	.	16a/JJ	.	16a\JJ	.	.	.
4r	.	16b\LL	.	16b\LL	.	.	.
.	.	16cc\	.	16cc\	.	.	.
.	.	16dd\	.	16dd\	.	.	.
.	.	16ee\JJ	.	16ee\JJ	.	.	.
=49	=49	=49	=49	=49	=49	=49	=49
8r	.	8ff\L	.	8dd\L	.	1r	.
8G\L	.	8ff\	.	8dd\	.	.	.
8G\	.	8ff\	.	8dd\	.	.	.
8G\J	.	8ff\J	.	8dd\J	.	.	.
4C/	.	16ee\LL	.	16ee\LL	.	.	.
.	.	16cc\	.	16cc\	.	.	.
.	.	16b\	.	16b\	.	.	.
.	.	16a\JJ	.	16a\JJ	.	.	.
4r	.	16g/LL	.	16g/LL	.	.	.
.	.	16f/	.	16f/	.	.	.
.	.	16e/	.	16e/	.	.	.
.	.	16d/JJ	.	16d/JJ	.	.	.
=50	=50	=50	=50	=50	=50	=50	=50
8C/L	.	8c/L	.	8c/L	.	1r;	.
8D/	.	8g/	.	8g/	.	.	.
8E/	.	8cc/	.	8cc/	.	.	.
8F/J	.	8f/J	.	8f/J	.	.	.
8G\L	.	4e/	.	4e/	.	.	.
8F\	.	.	.	.	.	.	.
8G\	.	8d/L	.	8d/L	.	.	.
8GG/J	.	8c/J	.	8c/J	.	.	.
=51	=51	=51	=51	=51	=51	=51	=51
!LO:TX:a:t=Finis	!	!LO:TX:a:t=finis	!	!LO:TX:a:t=finis	!	!	!
8C;</L	.	4c;</	.	4c;;/	.	2r	.
16E/L	.	.	.	.	.	.	.
16D/JJ	.	.	.	.	.	.	.
!LO:LB:g=original	!	!	!	!	!	!	!
8C/L	.	4r	.	4r	.	.	.
8BB/J	.	.	.	.	.	.	.
8AA/L	.	2r	.	2r	.	4a\	O
8BB/	.	.	.	.	.	.	.
8C/	.	.	.	.	.	8r	.
8BB/J	.	.	.	.	.	8a\	o
=52||	=52||	=52||	=52||	=52||	=52||	=52||	=52||
4AA/	.	1r	.	1r	.	4a\	lux
8AA/L	.	.	.	.	.	8a\	be-
8E/J	.	.	.	.	.	8g#X\	-a-
4AA/	.	.	.	.	.	8.a\	-tis-
.	.	.	.	.	.	16e\	-si-
4r	.	.	.	.	.	4e\	-ma
=53	=53	=53	=53	=53	=53	=53	=53
8AA/L	.	1r	.	1r	.	8a\	im-
8AA/	.	.	.	.	.	8a\	-ple
8AA/	.	.	.	.	.	8a\	Cor-
!	!	!	!	!	!	!LO:LB:g=original	!
8BB/J	6	.	.	.	.	8g#X\	-dis
8C/L	.	.	.	.	.	8.a\	in-
8BB/	.	.	.	.	.	.	.
.	.	.	.	.	.	16e\	-ti-
8C/	.	.	.	.	.	8e\	-ma
8AA/J	.	.	.	.	.	8cc\	tu-
=54	=54	=54	=54	=54	=54	=54	=54
4E\	#	1r	.	1r	.	4b\	-o-
8AA/L	.	.	.	.	.	8cc\	-rum
8C/J	.	.	.	.	.	8a\	fi-
4E\	.	.	.	.	.	8g#X\L	-de-
.	.	.	.	.	.	8a\J	-li-
4EE/	.	.	.	.	.	4b\	-um
=55	=55	=55	=55	=55	=55	=55	=55
!	!	!	!LO:DY:a:t=piano	!	!	!	!
1r	.	8c/L	p	8c/L	.	8e\	si-
.	.	8c/	.	8c/	.	8e\	-ne
.	.	8c/	.	8c/	.	8e\	tu-
*	*	*custos:d	*	*	*	*	*
.	.	8A/J	.	8B/J	.	8e\	-o
!	!	!LO:LB:g=original	!	!LO:LB:g=original	!	!	!
.	.	8d/L	.	8d/L	.	8.f\	nu-
.	.	16c/L	.	16c/L	.	.	.
.	.	16B/JJ	.	16B/JJ	.	16f\	-mi-
.	.	4c/	.	8c/L	.	4e\	-ne
.	.	.	.	8A/J	.	.	.
=56	=56	=56	=56	=56	=56	=56	=56
1r	.	8c/L	.	8c/L	.	8e\	ni-
.	.	8A/	.	8A/	.	8e\	-hi
.	.	8c/	.	8c/	.	8e\	est
.	.	8A/J	.	8A/J	.	8e\	in
!	!	!	!	!	!	!LO:LB:g=original	!
.	.	8d/L	.	8d/L	.	8.f\	ho-
.	.	16c/L	.	16c/L	.	.	.
.	.	16B/JJ	.	16B/JJ	.	16e\	-mi-
.	.	8c/L	.	8c/L	.	4e\	-ne
.	.	8A/J	.	8A/J	.	.	.
=57	=57	=57	=57	=57	=57	=57	=57
4E\	6 2:4	1r	.	1r	.	8cc\L	ni-
.	.	.	.	.	.	8b\J	.
4E\	5 #	.	.	.	.	4b\	-hil
4E\	6 4	.	.	.	.	8cc\L	ni-
.	.	.	.	.	.	8b\J	.
4E\	5 #	.	.	.	.	4b\	-hil
=58	=58	=58	=58	=58	=58	=58	=58
8A\L	-	1r	.	1r	.	8cc\	ni-
8E\	#	.	.	.	.	8b\	-hil
8F\	.	.	.	.	.	8cc\	est
8D\J	.	.	.	.	.	8a\	in
!LO:TX:t=P:problem=mixed beam	!	!	!	!	!	!	!
!LO:LB:g=original	!	!	!	!	!	!	!
8E\L	.	.	.	.	.	8.g#X\	ho-
8EE/J	.	.	.	.	.	.	.
.	.	.	.	.	.	16a\	-mi-
4AA/	.	.	.	.	.	4a\	-ne
=59	=59	=59	=59	=59	=59	=59	=59
!	!	!	!LO:DY:a:t=piano	!	!	!	!
4AA/	.	8a/L	p	8a/L	.	1r	.
.	.	8A/	.	8A/	.	.	.
4r	.	8a/	.	8a/	.	.	.
.	.	8A/J	.	8A/J	.	.	.
4AA/	.	8a/L	.	8a/L	.	.	.
.	.	16g/L	.	16g/L	.	.	.
.	.	16f/JJ	.	16f/JJ	.	.	.
4r	.	4e/	.	4e/	.	.	.
=60	=60	=60	=60	=60	=60	=60	=60
!LO:TX:a:t=1	!	!	!	!	!	!	!
1r	.	(8f/L	.	(8f/L	.	1r	.
.	.	8e/)	.	8e/)	.	.	.
.	.	(8e/	.	(8e/	.	.	.
.	.	8d/J)	.	8d/J)	.	.	.
.	.	8c/L	.	8c/L	.	.	.
.	.	16B/L	.	16B/L	.	.	.
.	.	16c/JJ	.	16c/JJ	.	.	.
.	.	4A/	.	4A/	.	.	.
=61	=61	=61	=61	=61	=61	=61	=61
4E\	.	16e/LL	.	16e/LL	.	1r	.
.	.	16f#X/	.	16f#X/	.	.	.
.	.	16g#X/	.	16g#X/	.	.	.
.	.	16a/JJ	.	16a/JJ	.	.	.
4r	.	16b\LL	.	16b\LL	.	.	.
.	.	16cc#X\	.	16cc#X\	.	.	.
.	.	16dd#X\	.	16dd#X\	.	.	.
.	.	16ee\JJ	.	16ee\JJ	.	.	.
!	!	!	!	!LO:LB:g=original	!	!	!
8E\L	#	8e/	.	8e/	.	.	.
8F#X\	.	4ee\	.	4cc#\	.	.	.
8G#X\	.	.	.	.	.	.	.
8E\J	.	8dd#\	.	8b\	.	.	.
!	!	!LO:LB:g=original	!	!	!	!	!
=62	=62	=62	=62	=62	=62	=62	=62
!LO:TX:t=P:problem=mixed beam	!	!	!	!	!	!	!
8A\L	.	8cc\L	.	8cc\L	.	2r	.
8D\	.	16b\L	.	16b\L	.	.	.
.	.	16a\JJ	.	16a\JJ	.	.	.
8E\	.	8.g#X/L	.	8.g#X/L	.	.	.
8EE/J	.	.	.	.	.	.	.
.	.	16a/Jk	.	16a/Jk	.	.	.
4AA/	.	4a/	.	4a/	.	8a\	la-
.	.	.	.	.	.	8e\	-va
8r	.	4r	.	4r	.	8e\	quod
8AA/	.	.	.	.	.	8e\	est
=63	=63	=63	=63	=63	=63	=63	=63
4D/	3	4r	.	4r	.	8f\	sor-
.	.	.	.	.	.	8e\	-di-
4C/	.	8r	.	8r	.	4e\	-dum
.	.	8ee\	.	8ee\	.	.	.
!	!	!	!	!	!	!LO:LB:g=original	!
4AA/	.	4e/	.	4e/	.	8a\	ri-
.	.	.	.	.	.	8e\	-ga
8r	.	4r	.	4r	.	8e\	quod
8AA/	.	.	.	.	.	8e\	est
=64	=64	=64	=64	=64	=64	=64	=64
4D/	.	4r	.	4r	.	8f\	a-
.	.	.	.	.	.	8f\	-ri-
4C/	.	8r	.	8r	.	4e\	-dum
.	.	8ee\	.	8ee\	.	.	.
8A\L	.	4e/	.	4e/	.	8cc\	sa-
8E\	#	.	.	.	.	8b\	-na
8A\	.	4r	.	4r	.	8cc\	quod
8E\J	.	.	.	.	.	8b\	est
=65	=65	=65	=65	=65	=65	=65	=65
!	!	!LO:TX:a:t=1	!	!LO:TX:a:t=1	!	!	!
4A\	-	1r	.	1r	.	8.cc\	sau-
.	.	.	.	.	.	16cc\	-ci-
4E\	#	.	.	.	.	4b\	-um
8A\L	-	.	.	.	.	8a\	fle-
8E\	.	.	.	.	.	8g#X\	-cte
8A\	.	.	.	.	.	8a\	quod
8E\J	.	.	.	.	.	8b\	est
!LO:LB:g=original	!	!	!	!	!	!	!
=66	=66	=66	=66	=66	=66	=66	=66
4A\	.	4r	.	4r	.	8cc\	ri-
.	.	.	.	.	.	16b\LL	-gi-
.	.	.	.	.	.	16cc\JJ	.
4r	.	8r	.	8r	.	4a\	-dum
.	.	8a/	.	8a/	.	.	.
!	!	!	!	!	!	!LO:LB:g=original	!
8A\L	-	4A/	.	4A/	.	8a\	fo-
8E\	#	.	.	.	.	8g#X\	-ve
8A\	.	4r	.	4r	.	8a\	quod
8E\J	.	.	.	.	.	8b\	est
=67	=67	=67	=67	=67	=67	=67	=67
4A\	.	4r	.	4r	.	8.cc\	fri-
.	.	.	.	.	.	16b\	-gi-
4r	.	8r	.	8r	.	4a\	-dum
.	.	8a/	.	8a/	.	.	.
4A\	-	4A/	.	4A/	.	8cc\L	Re-
.	.	.	.	.	.	8b\J	.
4E\	#	4r	.	4r	.	4b\	-ge
=68	=68	=68	=68	=68	=68	=68	=68
!	!	!LO:TX:a:t=1	!	!LO:TX:a:t=1	!	!	!
8A\L	-	1r	.	1r	.	8cc\	re-
8E\	#	.	.	.	.	8b\	-ge
8A\	.	.	.	.	.	8cc\	quod
8D\J	.	.	.	.	.	8a\	est
!LO:TX:t=P:problem=mixed beam	!	!	!	!	!	!	!
8E\L	.	.	.	.	.	8.g#X\	de-
8EE/J	.	.	.	.	.	.	.
.	.	.	.	.	.	16a\	-vi-
4AA/	.	.	.	.	.	4a\	-um
=69	=69	=69	=69	=69	=69	=69	=69
4AA/	.	8a/L	.	8a/L	.	1r	.
.	.	8A/	.	8A/	.	.	.
4r	.	8a/	.	8a/	.	.	.
.	.	8A/J	.	8A/J	.	.	.
!	!	!	!	!LO:LB:g=original	!	!	!
4AA/	.	8a/L	.	8a/L	.	.	.
.	.	16g/L	.	16g/L	.	.	.
.	.	16f/JJ	.	16f/JJ	.	.	.
4r	.	4e/	.	4e/	.	.	.
=70	=70	=70	=70	=70	=70	=70	=70
1r	.	(8f/L	.	8d/L	.	1r	.
.	.	8e/)	.	8c/	.	.	.
.	.	(8e/	.	8c/	.	.	.
.	.	8d/J)	.	8B/J	.	.	.
!	!	!LO:LB:g=original	!	!	!	!	!
.	.	8c/L	.	8c/L	.	.	.
.	.	16B/L	.	16B/L	.	.	.
.	.	16c/JJ	.	16c/JJ	.	.	.
.	.	4A/	.	4A/	.	.	.
=71	=71	=71	=71	=71	=71	=71	=71
4E\	#	16e/LL	.	16e/LL	.	1r	.
.	.	16f#X/	.	16f#X/	.	.	.
.	.	16g#X/	.	16g#X/	.	.	.
.	.	16a/JJ	.	16a/JJ	.	.	.
4r	.	16b\LL	.	16b\LL	.	.	.
.	.	16cc#X\	.	16cc#X\	.	.	.
.	.	16dd#X\	.	16dd#X\	.	.	.
.	.	16ee\JJ	.	16ee\JJ	.	.	.
8E\L	.	8e/	.	8e/	.	.	.
8F#X\	.	4ee\	.	4cc#\	.	.	.
8G#X\	6	.	.	.	.	.	.
!	!	!	!	!LO:TX:t=P:problem=brak kasownika	!	!	!
8E\J	.	8ddn\	.	8b\	.	.	.
=72	=72	=72	=72	=72	=72	=72	=72
!LO:TX:t=P:problem=mixed beam	!	!	!	!	!	!	!
8A\L	.	8cc\L	.	8cc\L	.	2r	.
8D\	.	16b\L	.	16b\L	.	.	.
.	.	16a\JJ	.	16a\JJ	.	.	.
8E\	.	8.g#X/L	.	8.g#X/L	.	.	.
8EE/J	.	.	.	.	.	.	.
.	.	16a/Jk	.	16a/Jk	.	.	.
!	!	!	!LO:DY:a:t=piano	!	!	!	!
4AA/	.	8a/L	p	4a/	.	8a\	da
.	.	8g#X/	.	.	.	8g#X\	tu-
4r	.	8a/	.	4r	.	8a\	-is
.	.	8g#X/J	.	.	.	8g#\	fi-
!	!	!	!	!	!	!LO:LB:g=original	!
=73	=73	=73	=73	=73	=73	=73	=73
1r	.	8a/L	.	1r	.	8a\	-de-
.	.	16g#X/L	.	.	.	16g#X\LL	-li-
.	.	16f#X/JJ	.	.	.	16f\JJ	.
.	.	4e/	.	.	.	4e\	-bus
.	.	8a/L	.	.	.	8a\	in
.	.	8g#X/	.	.	.	8g#X\	te
.	.	8a/	.	.	.	8a\	con-
.	.	8g#X/J	.	.	.	8g#\	-fi-
=74	=74	=74	=74	=74	=74	=74	=74
1r	.	8a/L	.	1r	.	8a\	-den-
.	.	16g#X/L	.	.	.	16g#X\LL	-ti-
.	.	16f#X/JJ	.	.	.	16f#X\JJ	.
.	.	4e/	.	.	.	4e\	-bus
!	!	!LO:LB:g=original	!	!	!	!	!
.	.	8cc\L	.	.	.	8cc\	Sa-
.	.	8b\	.	.	.	8b\	-crum
.	.	8cc\	.	.	.	8cc\	Se-
.	.	8b\J	.	.	.	8b\	-pte-
=75	=75	=75	=75	=75	=75	=75	=75
2r	.	8.cc\L	.	1r	.	8.cc\	-na-
.	.	16cc\Jk	.	.	.	16cc\	-ri-
.	.	4b/	.	.	.	4b\	-um
8E\L	-	2r	.	.	.	8a\	da
8D#X\	5	.	.	.	.	8f#X\	vir-
8D#\	.	.	.	.	.	8f#\	-tu-
8D#\J	.	.	.	.	.	8a\	-tis
!LO:LB:g=original	!	!	!	!	!	!LO:LB:g=original	!
=76	=76	=76	=76	=76	=76	=76	=76
!	!	!LO:TX:a:t=1	!	!	!	!	!
4E\	-	1r	.	1r	.	8.g\	me-
.	.	.	.	.	.	16g\	-ri-
4BB/	#	.	.	.	.	4f\	-tum
8E\L	.	.	.	.	.	8b\	da
8D#X\	5	.	.	.	.	8f\	Sa-
8D#\	.	.	.	.	.	8f\	-lu-
8D#\J	.	.	.	.	.	8a\	-tis
=77	=77	=77	=77	=77	=77	=77	=77
4E\	.	2r	.	2r	.	8.g\	e-
.	.	.	.	.	.	16g\	-xi-
4BB/	.	.	.	.	.	4f#X\	-tum
2r	.	8e/L	.	8e/L	.	4b\	da
.	.	8f#X/	.	8f#X/	.	.	.
.	.	8gn/	.	8g/	.	8r	.
.	.	8e/J	.	8e/J	.	8b\	pe-
!	!	!	!	!LO:LB:g=original	!	!	!
=78	=78	=78	=78	=78	=78	=78	=78
1r	.	16a/LL	.	16a/LL	.	16cc\LL	-ren-
.	.	16b/	.	16b/	.	16dd\	.
.	.	16a/	.	16a/	.	16cc\	.
.	.	16b/JJ	.	16b/JJ	.	16dd\JJ	.
.	.	16a/LL	.	16a/LL	.	16cc\LL	.
.	.	16b/	.	16b/	.	16dd\	.
.	.	16a/	.	16a/	.	16cc\	.
.	.	16b/JJ	.	16b/JJ	.	16dd\JJ	.
.	.	8g/L	.	8g/L	.	4b\	-ne
.	.	8f#X/	.	8f#X/	.	.	.
.	.	8g/	.	8g/	.	8r	.
.	.	8e/J	.	8e/J	.	8b\	pe-
=79	=79	=79	=79	=79	=79	=79	=79
1r	.	16f#X/LL	.	16f#X/LL	.	16a\LL	-ren-
.	.	16g/	.	16g/	.	16b\	.
.	.	16f#/	.	16f#/	.	16a\	.
.	.	16g/JJ	.	16g/JJ	.	16b\JJ	.
.	.	16f#/LL	.	16f#/LL	.	16a\LL	.
.	.	16g/	.	16g/	.	16dd\	.
.	.	16f#/	.	16f#/	.	16b\	.
.	.	16g/JJ	.	16g/JJ	.	16dd\JJ	.
!	!	!	!	!	!	!LO:LB:g=original	!
.	.	4e/	.	4e/	.	4g\	.
.	.	8d#X/L	.	8d#X/L	.	8f#X\	-ne
.	.	8d#/J	.	8d#/J	.	8f#\	pe-
=80	=80	=80	=80	=80	=80	=80	=80
2r	.	8e/L	.	8e/L	.	8g\	-ren-
.	.	8a/	.	8a/	.	8e\	-ne
.	.	8b/	.	8b/	.	8.d#X\	gau-
.	.	8B/J	.	8B/J	.	.	.
.	.	.	.	.	.	16e\	-di-
!	!	!LO:LB:g=original	!	!	!	!	!
8r	.	8e/	.	8e/	.	8e\	-um
8E\L	-	8r	.	8r	.	8g\	Al-
8E\	.	4r	.	4r	.	8g\	-le-
8BB\J	#	.	.	.	.	8f#X\	-lu-
=81	=81	=81	=81	=81	=81	=81	=81
4E\	-	1r	.	1r	.	8g\L	-ia
.	.	.	.	.	.	16e\L	.
.	.	.	.	.	.	16d#X\JJ	.
8r	.	.	.	.	.	8e\L	.
8BB/	.	.	.	.	.	8f\J	.
4E\	.	.	.	.	.	8g\L	.
.	.	.	.	.	.	16e\L	.
.	.	.	.	.	.	16d#\JJ	.
4r	.	.	.	.	.	16e\LL	.
.	.	.	.	.	.	16f#X\	.
.	.	.	.	.	.	16g\	.
.	.	.	.	.	.	16a\JJ	.
=82	=82	=82	=82	=82	=82	=82	=82
8D#X/L	.	1r	.	1r	.	4b\	.
8C#X/	.	.	.	.	.	.	.
8D#X/	.	.	.	.	.	8r	.
8BB/J	.	.	.	.	.	8a\	al-
8E\L	.	.	.	.	.	4g\	-le-
8G\	.	.	.	.	.	.	.
8B\	.	.	.	.	.	8f#X\L	lu-
8BB/J	.	.	.	.	.	8e\J	.
!	!	!	!	!	!	!LO:LB:g=original	!
=83	=83	=83	=83	=83	=83	=83	=83
8E\L	.	8r	.	8r	.	4e\	-ia
8G\	.	8ee\L	.	8ee\L	.	.	.
8B\	.	8b\	.	8b\	.	4r	.
8BB/J	.	8dd#X\J	.	8dd#X\J	.	.	.
4E\	.	4ee\	.	4ee\	.	2r	.
!LO:TX:a:t=Da Capo\nad finem	!	!LO:TX:a:t=Da Capo\nad finem	!	!LO:TX:a:t=Da Capo\nad finem	!	!	!
4r	.	4r	.	4r	.	.	.
==	==	==	==	==	==	==	==
*-	*-	*-	*-	*-	*-	*-	*-
!!!system-decoration: [(s1)][(s2,s3)]s4
!!!RDF**kern: > = above
!!!RDF**kern: < = below
!!!ENC: Berenika Jozajtis
!!!END: 2020-12-08
!!!ENC: Jan Barakat
!!!END: 2022-03-29
